hero/solid/archive-box-arrow-down.svg

<svg width="24" height="24" viewBox="0 0 24 24" fill="none" xmlns="http://www.w3.org/2000/svg">
<path d="M3.375 3C2.33947 3 1.5 3.83947 1.5 4.875V5.625C1.5 6.66053 2.33947 7.5 3.375 7.5H20.625C21.6605 7.5 22.5 6.66053 22.5 5.625V4.875C22.5 3.83947 21.6605 3 20.625 3H3.375Z" fill="#0F172A"/>
<path fill-rule="evenodd" clip-rule="evenodd" d="M3.08679 9L3.62657 18.1762C3.71984 19.7619 5.03296 21 6.62139 21H17.3783C18.9667 21 20.2799 19.7619 20.3731 18.1762L20.9129 9H3.08679ZM12 10.5C12.4142 10.5 12.75 10.8358 12.75 11.25V16.1893L14.4697 14.4697C14.7626 14.1768 15.2374 14.1768 15.5303 14.4697C15.8232 14.7626 15.8232 15.2374 15.5303 15.5303L12.5303 18.5303C12.2374 18.8232 11.7626 18.8232 11.4697 18.5303L8.46967 15.5303C8.17678 15.2374 8.17678 14.7626 8.46967 14.4697C8.76256 14.1768 9.23744 14.1768 9.53033 14.4697L11.25 16.1893V11.25C11.25 10.8358 11.5858 10.5 12 10.5Z" fill="#0F172A"/>
</svg>

<svg viewBox="0 0 24 24" xmlns="http://www.w3.org/2000/svg"><g><path d="M3.37 3c-1.036 0-1.88.84-1.88 1.875v.75c0 1.03.84 1.875 1.875 1.875h17.25c1.03 0 1.875-.84 1.875-1.875v-.75C22.49 3.835 21.65 3 20.61 3H3.36Z"/><path fill-rule="evenodd" d="M3.08 9l.54 9.17h0c.09 1.58 1.4 2.82 2.99 2.82h10.757v0c1.58 0 2.9-1.24 2.99-2.83l.54-9.18H3.07Zm8.913 1.5v0c.41 0 .75.33.75.75v4.94l1.72-1.72 -.001-.001c.28-.31.75-.32 1.06-.04 .3.28.31.75.03 1.06 -.02.01-.03.02-.04.03l-3 3v0c-.3.29-.77.29-1.06 0l-3-3v-.001c-.31-.29-.32-.76-.04-1.06 .28-.31.75-.32 1.06-.04 .01.01.02.02.03.03l1.72 1.72v-4.94 0c0-.42.33-.75.75-.75Z"/></g></svg>
